site/templates/assets/static/ich-lerne-online-icon.svg

<svg clip-rule="evenodd" fill-rule="evenodd" stroke-linejoin="round" stroke-miterlimit="2" viewBox="0 0 320 320" xmlns="http://www.w3.org/2000/svg"><g transform="matrix(.926966 0 0 .926966 -45.51301724 -214.20692048)"><path d="m278.12 392.81c-6.85-9.86-21.31-23.26-48.13-23.26-28.62 0-43 14.07-48.91 24.72-11.91 21.3 9.7 55.63 17.74 70 4.11 7.33 4.16 13.4 6 17.88 1.047-.014 2.067.34 2.88 1 4.69 3.94 12.1 5.85 22.63 5.85 10.93 0 19.28-2.14 23.51-6 .937-.863 2.203-1.283 3.47-1.15 2.1-4.37 2.51-10.15 6.34-16.84 7.81-13.68 29.54-50.51 14.47-72.2z" fill="none"/><g fill-rule="nonzero"><path d="m205.43 492.53c-.299.319-.461.743-.45 1.18.15 5.93 9.65 12.32 22.5 12.77h2.42c9.9-.23 19.66-3.64 24.3-8.5 1.56-1.64 2.33-3.24 2.29-4.76.02-.343-.041-.686-.18-1-7.58 4.65-18 5.72-26 5.72-10.55.06-18.75-1.74-24.88-5.41z" fill="#b3aac6"/><path d="m230 515.49h-2.81c-5.46-.09-9.35-.5-13.21-1.84-.004.04-.004.08 0 .12.11 4.48 6.53 7.36 16.35 7.36 6.63 0 11.9-1.5 14.44-4.11 1.011-.958 1.577-2.297 1.56-3.69.005-.083.005-.167 0-.25-4.33 1.61-9.7 2.4-16.33 2.41z" fill="#b3aac6"/><path d="m315.41 291.48h-58.48c.49-10.28 8.93-14.36 8.93-29.27 0-16.22-18.34-16.93-43.84-16.93s-44.46.42-44.46 16.93c0 14.92 8.48 18.85 9 29.27h-58.56c-22.481.071-40.925 18.619-40.87 41.1v36.31s7.73-5.18 22.62-5.18c16.42 0 22.65 18.93 22.65 63.39s-6.52 60.82-22.65 60.82c-14.88 0-22.62-4.17-22.62-4.17v37.25c-.055 22.481 18.389 41.029 40.87 41.1h187.4c22.484-.066 40.935-18.616 40.88-41.1v-188.42c.055-22.481-18.389-41.029-40.87-41.1zm-89.73 36.26c0-2.776 2.284-5.06 5.06-5.06s5.06 2.284 5.06 5.06v26.93c0 2.776-2.284 5.06-5.06 5.06s-5.06-2.284-5.06-5.06zm-69.49 26.05c-.949-.949-1.483-2.238-1.483-3.58 0-2.777 2.286-5.063 5.063-5.063 1.342 0 2.631.534 3.58 1.483l19 19.05c.985.953 1.542 2.267 1.542 3.637 0 2.776-2.284 5.06-5.06 5.06-1.368 0-2.679-.555-3.632-1.537zm103.81 129.26.47.46c2.5 2.44 4.86 4.75 5 9.5.1 3.94-1.55 7.81-4.78 11.19-1.846 1.888-3.946 3.511-6.24 4.82.521 1.292.805 2.667.84 4.06.097 3.815-1.387 7.505-4.1 10.19-3 3.12-9.12 6.83-20.88 6.83-18.38 0-25.14-8.32-25.34-16.11-.049-1.608.295-3.204 1-4.65-6.05-3.89-9.87-9.33-10-15.4-.11-4.54 2.36-7.12 4.55-9.39l1-1c.85-.917 2.05-1.433 3.3-1.42-1.83-4.48-1.88-10.55-6-17.88-8-14.34-29.65-48.67-17.74-70 5.95-10.65 20.29-24.72 48.91-24.72 26.82 0 41.28 13.4 48.13 23.26 15.07 21.69-6.66 58.52-14.48 72.16-3.83 6.69-4.24 12.47-6.34 16.84 1.018.098 1.971.543 2.7 1.26zm40.89-129.26-19.05 19c-.953.982-2.264 1.537-3.632 1.537-2.776 0-5.06-2.284-5.06-5.06 0-1.37.557-2.684 1.542-3.637l19-19.05c.949-.949 2.238-1.483 3.58-1.483 2.777 0 5.063 2.286 5.063 5.063 0 1.342-.534 2.631-1.483 3.58z" fill="#b3aac6"/><path d="m182.39 372.84c.95-.949 1.484-2.238 1.484-3.58s-.534-2.631-1.484-3.58l-19-19.05c-.949-.949-2.238-1.483-3.58-1.483-2.777 0-5.063 2.286-5.063 5.063 0 1.342.534 2.631 1.483 3.58l19.05 19c1.962 1.959 5.188 1.959 7.15 0z" fill="#b3aac6"/><path d="m182.39 372.84c.95-.949 1.484-2.238 1.484-3.58s-.534-2.631-1.484-3.58l-19-19.05c-.949-.949-2.238-1.483-3.58-1.483-2.777 0-5.063 2.286-5.063 5.063 0 1.342.534 2.631 1.483 3.58l19.05 19c1.962 1.959 5.188 1.959 7.15 0z"/><path d="m293.75 346.63-19 19.05c-.985.953-1.542 2.267-1.542 3.637 0 2.776 2.284 5.06 5.06 5.06 1.368 0 2.679-.555 3.632-1.537l19.05-19c.949-.949 1.483-2.238 1.483-3.58 0-2.777-2.286-5.063-5.063-5.063-1.342 0-2.631.534-3.58 1.483z" fill="#b3aac6"/><path d="m293.75 346.63-19 19.05c-.985.953-1.542 2.267-1.542 3.637 0 2.776 2.284 5.06 5.06 5.06 1.368 0 2.679-.555 3.632-1.537l19.05-19c.949-.949 1.483-2.238 1.483-3.58 0-2.777-2.286-5.063-5.063-5.063-1.342 0-2.631.534-3.58 1.483z"/><path d="m230.74 359.73c2.776 0 5.06-2.284 5.06-5.06v-26.93c0-2.776-2.284-5.06-5.06-5.06s-5.06 2.284-5.06 5.06v26.93c0 2.776 2.284 5.06 5.06 5.06z" fill="#b3aac6"/><path d="m230.74 359.73c2.776 0 5.06-2.284 5.06-5.06v-26.93c0-2.776-2.284-5.06-5.06-5.06s-5.06 2.284-5.06 5.06v26.93c0 2.776 2.284 5.06 5.06 5.06z"/><path d="m253.83 483c-4.23 3.9-12.58 6-23.51 6-10.53 0-17.94-1.91-22.63-5.85-.813-.66-1.833-1.014-2.88-1 2.25 5.49 7.18 8.57 25.63 8.57 18.78 0 24.19-3.3 26.86-8.88-1.269-.13-2.534.293-3.47 1.16z" fill="#1c1d1c"/><path d="m230.44 490.69c-18.45 0-23.38-3.08-25.63-8.57-1.25-.013-2.45.503-3.3 1.42l-1 1c-2.19 2.27-4.66 4.85-4.55 9.39.16 6.07 4 11.51 10 15.4-.705 1.446-1.049 3.042-1 4.65.2 7.79 7 16.11 25.34 16.11 11.76 0 17.84-3.71 20.88-6.83 2.713-2.685 4.197-6.375 4.1-10.19-.035-1.393-.319-2.768-.84-4.06 2.294-1.309 4.394-2.932 6.24-4.82 3.23-3.38 4.88-7.25 4.78-11.19-.13-4.75-2.49-7.06-5-9.5l-.47-.46c-.737-.714-1.698-1.152-2.72-1.24-2.64 5.59-8.05 8.89-26.83 8.89zm14.32 26.31c-2.54 2.61-7.81 4.11-14.44 4.11-9.82 0-16.24-2.88-16.35-7.36-.004-.04-.004-.08 0-.12 3.86 1.34 7.75 1.75 13.21 1.84h2.81c6.63 0 12-.8 16.3-2.43.005.083.005.167 0 .25.03 1.395-.525 2.742-1.53 3.71zm11.73-23.76c0 1.52-.73 3.12-2.29 4.76-4.64 4.86-14.4 8.27-24.3 8.5h-2.42c-12.85-.45-22.35-6.84-22.5-12.77-.011-.437.151-.861.45-1.18 6.13 3.67 14.33 5.46 24.89 5.46 8 0 18.41-1.07 26-5.72.128.3.186.625.17.95z" fill="#b3aac6"/><path d="m230.44 490.69c-18.45 0-23.38-3.08-25.63-8.57-1.25-.013-2.45.503-3.3 1.42l-1 1c-2.19 2.27-4.66 4.85-4.55 9.39.16 6.07 4 11.51 10 15.4-.705 1.446-1.049 3.042-1 4.65.2 7.79 7 16.11 25.34 16.11 11.76 0 17.84-3.71 20.88-6.83 2.713-2.685 4.197-6.375 4.1-10.19-.035-1.393-.319-2.768-.84-4.06 2.294-1.309 4.394-2.932 6.24-4.82 3.23-3.38 4.88-7.25 4.78-11.19-.13-4.75-2.49-7.06-5-9.5l-.47-.46c-.737-.714-1.698-1.152-2.72-1.24-2.64 5.59-8.05 8.89-26.83 8.89zm14.32 26.31c-2.54 2.61-7.81 4.11-14.44 4.11-9.82 0-16.24-2.88-16.35-7.36-.004-.04-.004-.08 0-.12 3.86 1.34 7.75 1.75 13.21 1.84h2.81c6.63 0 12-.8 16.3-2.43.005.083.005.167 0 .25.03 1.395-.525 2.742-1.53 3.71zm11.73-23.76c0 1.52-.73 3.12-2.29 4.76-4.64 4.86-14.4 8.27-24.3 8.5h-2.42c-12.85-.45-22.35-6.84-22.5-12.77-.011-.437.151-.861.45-1.18 6.13 3.67 14.33 5.46 24.89 5.46 8 0 18.41-1.07 26-5.72.128.3.186.625.17.95z" fill="#1c1d1c"/></g></g></svg>

<?xml version="1.0" encoding="UTF-8" standalone="no"?>
<!DOCTYPE svg PUBLIC "-//W3C//DTD SVG 1.1//EN" "http://www.w3.org/Graphics/SVG/1.1/DTD/svg11.dtd">
<svg width="100%" height="100%" viewBox="0 0 320 320" version="1.1" xmlns="http://www.w3.org/2000/svg" xmlns:xlink="http://www.w3.org/1999/xlink" xml:space="preserve" xmlns:serif="http://www.serif.com/" style="fill-rule:evenodd;clip-rule:evenodd;stroke-linejoin:round;stroke-miterlimit:2;">
    <g id="icon" transform="matrix(0.926966,0,0,0.926966,35.2628,13.1593)">
        <g transform="matrix(1,0,0,1,-87.14,-245.28)">
            <path d="M278.12,392.81C271.27,382.95 256.81,369.55 229.99,369.55C201.37,369.55 186.99,383.62 181.08,394.27C169.17,415.57 190.78,449.9 198.82,464.27C202.93,471.6 202.98,477.67 204.82,482.15C205.867,482.136 206.887,482.49 207.7,483.15C212.39,487.09 219.8,489 230.33,489C241.26,489 249.61,486.86 253.84,483C254.777,482.137 256.043,481.717 257.31,481.85C259.41,477.48 259.82,471.7 263.65,465.01C271.46,451.33 293.19,414.5 278.12,392.81Z" style="fill:none;fill-rule:nonzero;"/>
        </g>
        <g transform="matrix(1,0,0,1,-87.14,-245.28)">
            <path d="M205.43,492.53C205.131,492.849 204.969,493.273 204.98,493.71C205.13,499.64 214.63,506.03 227.48,506.48L229.9,506.48C239.8,506.25 249.56,502.84 254.2,497.98C255.76,496.34 256.53,494.74 256.49,493.22C256.51,492.877 256.449,492.534 256.31,492.22C248.73,496.87 238.31,497.94 230.31,497.94C219.76,498 211.56,496.2 205.43,492.53Z" style="fill:rgb(179,170,198);fill-rule:nonzero;"/>
        </g>
        <g transform="matrix(1,0,0,1,-87.14,-245.28)">
            <path d="M230,515.49L227.19,515.49C221.73,515.4 217.84,514.99 213.98,513.65C213.976,513.69 213.976,513.73 213.98,513.77C214.09,518.25 220.51,521.13 230.33,521.13C236.96,521.13 242.23,519.63 244.77,517.02C245.781,516.062 246.347,514.723 246.33,513.33C246.335,513.247 246.335,513.163 246.33,513.08C242,514.69 236.63,515.48 230,515.49Z" style="fill:rgb(179,170,198);fill-rule:nonzero;"/>
        </g>
        <g transform="matrix(1,0,0,1,-87.14,-245.28)">
            <path d="M315.41,291.48L256.93,291.48C257.42,281.2 265.86,277.12 265.86,262.21C265.86,245.99 247.52,245.28 222.02,245.28C196.52,245.28 177.56,245.7 177.56,262.21C177.56,277.13 186.04,281.06 186.56,291.48L128,291.48C105.519,291.551 87.075,310.099 87.13,332.58L87.13,368.89C87.13,368.89 94.86,363.71 109.75,363.71C126.17,363.71 132.4,382.64 132.4,427.1C132.4,471.56 125.88,487.92 109.75,487.92C94.87,487.92 87.13,483.75 87.13,483.75L87.13,521C87.075,543.481 105.519,562.029 128,562.1L315.4,562.1C337.884,562.034 356.335,543.484 356.28,521L356.28,332.58C356.335,310.099 337.891,291.551 315.41,291.48ZM225.68,327.74C225.68,324.964 227.964,322.68 230.74,322.68C233.516,322.68 235.8,324.964 235.8,327.74L235.8,354.67C235.8,357.446 233.516,359.73 230.74,359.73C227.964,359.73 225.68,357.446 225.68,354.67L225.68,327.74ZM156.19,353.79C155.241,352.841 154.707,351.552 154.707,350.21C154.707,347.433 156.993,345.147 159.77,345.147C161.112,345.147 162.401,345.681 163.35,346.63L182.35,365.68C183.335,366.633 183.892,367.947 183.892,369.317C183.892,372.093 181.608,374.377 178.832,374.377C177.464,374.377 176.153,373.822 175.2,372.84L156.19,353.79ZM260,483.05L260.47,483.51C262.97,485.95 265.33,488.26 265.47,493.01C265.57,496.95 263.92,500.82 260.69,504.2C258.844,506.088 256.744,507.711 254.45,509.02C254.971,510.312 255.255,511.687 255.29,513.08C255.387,516.895 253.903,520.585 251.19,523.27C248.19,526.39 242.07,530.1 230.31,530.1C211.93,530.1 205.17,521.78 204.97,513.99C204.921,512.382 205.265,510.786 205.97,509.34C199.92,505.45 196.1,500.01 195.97,493.94C195.86,489.4 198.33,486.82 200.52,484.55L201.52,483.55C202.37,482.633 203.57,482.117 204.82,482.13C202.99,477.65 202.94,471.58 198.82,464.25C190.82,449.91 169.17,415.58 181.08,394.25C187.03,383.6 201.37,369.53 229.99,369.53C256.81,369.53 271.27,382.93 278.12,392.79C293.19,414.48 271.46,451.31 263.64,464.95C259.81,471.64 259.4,477.42 257.3,481.79C258.318,481.888 259.271,482.333 260,483.05ZM300.89,353.79L281.84,372.79C280.887,373.772 279.576,374.327 278.208,374.327C275.432,374.327 273.148,372.043 273.148,369.267C273.148,367.897 273.705,366.583 274.69,365.63L293.69,346.58C294.639,345.631 295.928,345.097 297.27,345.097C300.047,345.097 302.333,347.383 302.333,350.16C302.333,351.502 301.799,352.791 300.85,353.74L300.89,353.79Z" style="fill:rgb(179,170,198);fill-rule:nonzero;"/>
        </g>
        <g transform="matrix(1,0,0,1,-87.14,-245.28)">
            <path d="M182.39,372.84C183.34,371.891 183.874,370.602 183.874,369.26C183.874,367.918 183.34,366.629 182.39,365.68L163.39,346.63C162.441,345.681 161.152,345.147 159.81,345.147C157.033,345.147 154.747,347.433 154.747,350.21C154.747,351.552 155.281,352.841 156.23,353.79L175.28,372.79C177.242,374.749 180.468,374.749 182.43,372.79L182.39,372.84Z" style="fill:rgb(179,170,198);fill-rule:nonzero;"/>
        </g>
        <g transform="matrix(1,0,0,1,-87.14,-245.28)">
            <path d="M182.39,372.84C183.34,371.891 183.874,370.602 183.874,369.26C183.874,367.918 183.34,366.629 182.39,365.68L163.39,346.63C162.441,345.681 161.152,345.147 159.81,345.147C157.033,345.147 154.747,347.433 154.747,350.21C154.747,351.552 155.281,352.841 156.23,353.79L175.28,372.79C177.242,374.749 180.468,374.749 182.43,372.79L182.39,372.84Z" style="fill-rule:nonzero;"/>
        </g>
        <g transform="matrix(1,0,0,1,-87.14,-245.28)">
            <path d="M293.75,346.63L274.75,365.68C273.765,366.633 273.208,367.947 273.208,369.317C273.208,372.093 275.492,374.377 278.268,374.377C279.636,374.377 280.947,373.822 281.9,372.84L300.95,353.84C301.899,352.891 302.433,351.602 302.433,350.26C302.433,347.483 300.147,345.197 297.37,345.197C296.028,345.197 294.739,345.731 293.79,346.68L293.75,346.63Z" style="fill:rgb(179,170,198);fill-rule:nonzero;"/>
        </g>
        <g transform="matrix(1,0,0,1,-87.14,-245.28)">
            <path d="M293.75,346.63L274.75,365.68C273.765,366.633 273.208,367.947 273.208,369.317C273.208,372.093 275.492,374.377 278.268,374.377C279.636,374.377 280.947,373.822 281.9,372.84L300.95,353.84C301.899,352.891 302.433,351.602 302.433,350.26C302.433,347.483 300.147,345.197 297.37,345.197C296.028,345.197 294.739,345.731 293.79,346.68L293.75,346.63Z" style="fill-rule:nonzero;"/>
        </g>
        <g transform="matrix(1,0,0,1,-87.14,-245.28)">
            <path d="M230.74,359.73C233.516,359.73 235.8,357.446 235.8,354.67L235.8,327.74C235.8,324.964 233.516,322.68 230.74,322.68C227.964,322.68 225.68,324.964 225.68,327.74L225.68,354.67C225.68,357.446 227.964,359.73 230.74,359.73Z" style="fill:rgb(179,170,198);fill-rule:nonzero;"/>
        </g>
        <g transform="matrix(1,0,0,1,-87.14,-245.28)">
            <path d="M230.74,359.73C233.516,359.73 235.8,357.446 235.8,354.67L235.8,327.74C235.8,324.964 233.516,322.68 230.74,322.68C227.964,322.68 225.68,324.964 225.68,327.74L225.68,354.67C225.68,357.446 227.964,359.73 230.74,359.73Z" style="fill-rule:nonzero;"/>
        </g>
        <g transform="matrix(1,0,0,1,-87.14,-245.28)">
            <path d="M253.83,483C249.6,486.9 241.25,489 230.32,489C219.79,489 212.38,487.09 207.69,483.15C206.877,482.49 205.857,482.136 204.81,482.15C207.06,487.64 211.99,490.72 230.44,490.72C249.22,490.72 254.63,487.42 257.3,481.84C256.031,481.71 254.766,482.133 253.83,483Z" style="fill:rgb(28,29,28);fill-rule:nonzero;"/>
        </g>
        <g transform="matrix(1,0,0,1,-87.14,-245.28)">
            <path d="M230.44,490.69C211.99,490.69 207.06,487.61 204.81,482.12C203.56,482.107 202.36,482.623 201.51,483.54L200.51,484.54C198.32,486.81 195.85,489.39 195.96,493.93C196.12,500 199.96,505.44 205.96,509.33C205.255,510.776 204.911,512.372 204.96,513.98C205.16,521.77 211.96,530.09 230.3,530.09C242.06,530.09 248.14,526.38 251.18,523.26C253.893,520.575 255.377,516.885 255.28,513.07C255.245,511.677 254.961,510.302 254.44,509.01C256.734,507.701 258.834,506.078 260.68,504.19C263.91,500.81 265.56,496.94 265.46,493C265.33,488.25 262.97,485.94 260.46,483.5L259.99,483.04C259.253,482.326 258.292,481.888 257.27,481.8C254.63,487.39 249.22,490.69 230.44,490.69ZM244.76,517C242.22,519.61 236.95,521.11 230.32,521.11C220.5,521.11 214.08,518.23 213.97,513.75C213.966,513.71 213.966,513.67 213.97,513.63C217.83,514.97 221.72,515.38 227.18,515.47L229.99,515.47C236.62,515.47 241.99,514.67 246.29,513.04C246.295,513.123 246.295,513.207 246.29,513.29C246.32,514.685 245.765,516.032 244.76,517ZM256.49,493.24C256.49,494.76 255.76,496.36 254.2,498C249.56,502.86 239.8,506.27 229.9,506.5L227.48,506.5C214.63,506.05 205.13,499.66 204.98,493.73C204.969,493.293 205.131,492.869 205.43,492.55C211.56,496.22 219.76,498.01 230.32,498.01C238.32,498.01 248.73,496.94 256.32,492.29C256.448,492.59 256.506,492.915 256.49,493.24Z" style="fill:rgb(179,170,198);fill-rule:nonzero;"/>
        </g>
        <g transform="matrix(1,0,0,1,-87.14,-245.28)">
            <path d="M230.44,490.69C211.99,490.69 207.06,487.61 204.81,482.12C203.56,482.107 202.36,482.623 201.51,483.54L200.51,484.54C198.32,486.81 195.85,489.39 195.96,493.93C196.12,500 199.96,505.44 205.96,509.33C205.255,510.776 204.911,512.372 204.96,513.98C205.16,521.77 211.96,530.09 230.3,530.09C242.06,530.09 248.14,526.38 251.18,523.26C253.893,520.575 255.377,516.885 255.28,513.07C255.245,511.677 254.961,510.302 254.44,509.01C256.734,507.701 258.834,506.078 260.68,504.19C263.91,500.81 265.56,496.94 265.46,493C265.33,488.25 262.97,485.94 260.46,483.5L259.99,483.04C259.253,482.326 258.292,481.888 257.27,481.8C254.63,487.39 249.22,490.69 230.44,490.69ZM244.76,517C242.22,519.61 236.95,521.11 230.32,521.11C220.5,521.11 214.08,518.23 213.97,513.75C213.966,513.71 213.966,513.67 213.97,513.63C217.83,514.97 221.72,515.38 227.18,515.47L229.99,515.47C236.62,515.47 241.99,514.67 246.29,513.04C246.295,513.123 246.295,513.207 246.29,513.29C246.32,514.685 245.765,516.032 244.76,517ZM256.49,493.24C256.49,494.76 255.76,496.36 254.2,498C249.56,502.86 239.8,506.27 229.9,506.5L227.48,506.5C214.63,506.05 205.13,499.66 204.98,493.73C204.969,493.293 205.131,492.869 205.43,492.55C211.56,496.22 219.76,498.01 230.32,498.01C238.32,498.01 248.73,496.94 256.32,492.29C256.448,492.59 256.506,492.915 256.49,493.24Z" style="fill:rgb(28,29,28);fill-rule:nonzero;"/>
        </g>
    </g>
</svg>
